X:37
M:2/4
L:1/8
Q:1/4=140
K:D
|:ecAd|fdAf|gfed|cB/c/ A2|ecAd|fdAg|fe/d/ ed/c/|d2d2:|
K:F
|:FEDE|FGAd|AGFE|FED^C|FEDE|FGAd|^cdec|d2d2:|
|:fedf|gfeg|fd^cd|e^c A2|FEDE|FGAd|^cdec|e^c d2:|

